X: 291
M: C
L: 1/8
K: G
(dc) |\
(Bc)(AB) GGAB | (cd)(Bc) AABc | (Bd).e.d (Bd).e.d | BdcB A2(dc) |
(Bc)(AB) GGAB | (cd)(Bc) AABc | (Bd).c.B (Ac).B.A | G2G2 G2 |]
(DE) |\
(Bc).A.B (AG).A.B | cdBc AABc | BdcB AcBA | G2G2 G2 |]


